icons/editor-underline-2-filled.svg

<svg width="24" height="24" viewBox="0 0 24 24" fill="none" xmlns="http://www.w3.org/2000/svg">
<g id="underline-02">
<path id="Icon" d="M17.0346 16.8005H7.80097M15.2987 6.60496V9.90267C15.2987 11.7239 13.8222 13.2004 12.001 13.2004C10.1797 13.2004 8.70326 11.7239 8.70326 9.90267V6.60496M4.80039 21.6004H19.2004C20.5259 21.6004 21.6004 20.5259 21.6004 19.2004V4.80039C21.6004 3.47491 20.5259 2.40039 19.2004 2.40039H4.80039C3.47491 2.40039 2.40039 3.47491 2.40039 4.80039V19.2004C2.40039 20.5259 3.47491 21.6004 4.80039 21.6004Z" stroke="black" stroke-width="2" stroke-linecap="round" stroke-linejoin="round"/>
</g>
</svg>

<svg xmlns="http://www.w3.org/2000/svg" width="24" height="24" fill="none" viewBox="0 0 24 24"><path stroke="currentColor" stroke-linecap="round" stroke-linejoin="round" stroke-width="2" d="M17.035 16.8H7.8m7.498-10.195v3.298a3.298 3.298 0 0 1-6.596 0V6.605M4.8 21.6h14.4a2.4 2.4 0 0 0 2.4-2.4V4.8a2.4 2.4 0 0 0-2.4-2.4H4.8a2.4 2.4 0 0 0-2.4 2.4v14.4a2.4 2.4 0 0 0 2.4 2.4"/></svg>
